2023_japangoods/img/guide/guide-note-head.svg

<svg width="41" height="100" viewBox="0 0 41 100" fill="none" xmlns="http://www.w3.org/2000/svg">
<rect width="41" height="100" rx="20.5" fill="#1F1F1F"/>
<path d="M24.6861 45.2005C23.5256 45.2005 22.6119 45.0938 21.9449 44.8804C21.278 44.6669 20.8045 44.2801 20.5244 43.7199C20.2576 43.1597 20.1242 42.3727 20.1242 41.3589V37.2372C20.1242 36.3835 20.2442 35.7166 20.4843 35.2364C20.7244 34.7428 21.1179 34.396 21.6648 34.1959C22.2251 33.9825 22.9654 33.8758 23.8857 33.8758H24.466C24.9729 33.8758 25.3263 33.7958 25.5264 33.6357C25.7265 33.4756 25.8265 33.1622 25.8265 32.6953V31.2347C25.8265 30.7679 25.7265 30.4544 25.5264 30.2943C25.3263 30.1343 24.9729 30.0542 24.466 30.0542H20.6444C20.351 30.0542 20.0975 29.9475 19.8841 29.7341C19.6707 29.5207 19.564 29.2672 19.564 28.9738C19.564 28.667 19.6707 28.4135 19.8841 28.2135C20.0975 28 20.351 27.8933 20.6444 27.8933H24.506C25.4397 27.8933 26.1734 28 26.7069 28.2135C27.2538 28.4135 27.6406 28.7537 27.8674 29.2339C28.1075 29.7141 28.2275 30.381 28.2275 31.2347V32.6953C28.2275 33.549 28.1075 34.2226 27.8674 34.7162C27.6406 35.1964 27.2538 35.5432 26.7069 35.7566C26.1734 35.9567 25.4397 36.0567 24.506 36.0567H23.8857C23.3522 36.0567 22.9854 36.1501 22.7853 36.3368C22.5852 36.5102 22.4852 36.8504 22.4852 37.3573V41.3589C22.4852 41.7591 22.5452 42.0725 22.6652 42.2993C22.7986 42.5127 23.0254 42.6661 23.3455 42.7595C23.6657 42.8395 24.1258 42.8795 24.7261 42.8795C25.2863 42.8795 25.7132 42.8395 26.0066 42.7595C26.3134 42.6795 26.5335 42.5394 26.6669 42.3393C26.8136 42.1259 26.9337 41.8191 27.027 41.4189C27.0937 41.0855 27.2805 40.8454 27.5873 40.6986C27.8941 40.5386 28.2209 40.5119 28.5677 40.6186C29.2613 40.832 29.5481 41.3056 29.428 42.0392C29.228 43.1863 28.7611 44 28.0275 44.4802C27.2938 44.9604 26.18 45.2005 24.6861 45.2005ZM15.0421 45.3806C14.2151 45.3806 13.5615 45.2805 13.0813 45.0804C12.6144 44.8937 12.2809 44.5736 12.0809 44.12C11.8808 43.6799 11.7807 43.0863 11.7807 42.3393C11.7807 41.579 11.8808 40.9787 12.0809 40.5386C12.2809 40.0984 12.6144 39.7849 13.0813 39.5982C13.5615 39.4114 14.2151 39.3181 15.0421 39.3181C15.8691 39.3181 16.5227 39.4114 17.0029 39.5982C17.4831 39.7849 17.8232 40.0984 18.0233 40.5386C18.2234 40.9787 18.3234 41.579 18.3234 42.3393C18.3234 43.0863 18.2234 43.6799 18.0233 44.12C17.8232 44.5736 17.4831 44.8937 17.0029 45.0804C16.5227 45.2805 15.8691 45.3806 15.0421 45.3806ZM11.6607 32.7353C11.4072 32.7353 11.1872 32.6486 11.0004 32.4752C10.827 32.2885 10.7403 32.0684 10.7403 31.815C10.7403 31.5482 10.827 31.3281 11.0004 31.1547C11.1872 30.9679 11.4072 30.8746 11.6607 30.8746H18.2834C18.5369 30.8746 18.7503 30.9679 18.9237 31.1547C19.1104 31.3281 19.2038 31.5482 19.2038 31.815C19.2038 32.0684 19.1104 32.2885 18.9237 32.4752C18.7503 32.6486 18.5369 32.7353 18.2834 32.7353H11.6607ZM12.6611 38.4177C12.4077 38.4177 12.1876 38.3243 12.0008 38.1376C11.8141 37.9375 11.7207 37.7107 11.7207 37.4573C11.7207 37.1905 11.8141 36.9638 12.0008 36.777C12.1876 36.5903 12.4077 36.4969 12.6611 36.4969H17.3831C17.6498 36.4969 17.8699 36.5903 18.0433 36.777C18.2301 36.9638 18.3234 37.1905 18.3234 37.4573C18.3234 37.7107 18.2301 37.9375 18.0433 38.1376C17.8699 38.3243 17.6498 38.4177 17.3831 38.4177H12.6611ZM12.6611 35.5765C12.4077 35.5765 12.1876 35.4831 12.0008 35.2964C11.8141 35.0963 11.7207 34.8696 11.7207 34.6161C11.7207 34.3493 11.8141 34.1226 12.0008 33.9358C12.1876 33.7491 12.4077 33.6557 12.6611 33.6557H17.3831C17.6498 33.6557 17.8699 33.7491 18.0433 33.9358C18.2301 34.1226 18.3234 34.3493 18.3234 34.6161C18.3234 34.8696 18.2301 35.0963 18.0433 35.2964C17.8699 35.4831 17.6498 35.5765 17.3831 35.5765H12.6611ZM12.6611 29.9342C12.4077 29.9342 12.1876 29.8408 12.0008 29.6541C11.8141 29.454 11.7207 29.2272 11.7207 28.9738C11.7207 28.707 11.8141 28.4802 12.0008 28.2935C12.1876 28.1068 12.4077 28.0134 12.6611 28.0134H17.3831C17.6498 28.0134 17.8699 28.1068 18.0433 28.2935C18.2301 28.4802 18.3234 28.707 18.3234 28.9738C18.3234 29.2272 18.2301 29.454 18.0433 29.6541C17.8699 29.8408 17.6498 29.9342 17.3831 29.9342H12.6611ZM15.0421 43.4998C15.4689 43.4998 15.7624 43.4264 15.9225 43.2797C16.0825 43.1196 16.1626 42.8062 16.1626 42.3393C16.1626 41.8858 16.0825 41.5857 15.9225 41.4389C15.7624 41.2789 15.4689 41.1988 15.0421 41.1988C14.6286 41.1988 14.3418 41.2789 14.1817 41.4389C14.0217 41.5857 13.9416 41.8858 13.9416 42.3393C13.9416 42.8062 14.0217 43.1196 14.1817 43.2797C14.3418 43.4264 14.6286 43.4998 15.0421 43.4998ZM17.8432 76.0008C16.9896 76.0008 16.5227 75.634 16.4427 74.9004C16.4026 74.5536 16.496 74.2601 16.7228 74.02C16.9495 73.7799 17.2697 73.6465 17.6832 73.6198C18.1901 73.5798 18.5102 73.5065 18.6436 73.3998C18.777 73.2797 18.8437 73.0263 18.8437 72.6394V72.3593H12.9412C12.7011 72.3593 12.4944 72.2793 12.321 72.1192C12.1609 71.9458 12.0809 71.7391 12.0809 71.499C12.0809 71.2589 12.1609 71.0588 12.321 70.8987C12.4944 70.7253 12.7011 70.6386 12.9412 70.6386H18.8437V69.8383H11.3406C11.1271 69.8383 10.9337 69.7582 10.7603 69.5982C10.6002 69.4381 10.5202 69.2447 10.5202 69.0179C10.5202 68.7912 10.6002 68.5978 10.7603 68.4377C10.9337 68.2776 11.1271 68.1976 11.3406 68.1976H18.8437V67.4173H13.0012C12.7478 67.4173 12.5344 67.3439 12.361 67.1972C12.1876 67.0371 12.1009 66.837 12.1009 66.5969C12.1009 66.3435 12.1876 66.1434 12.361 65.9967C12.5344 65.8366 12.7478 65.7566 13.0012 65.7566H18.8437V65.0563H16.3626C15.3489 65.0563 14.6486 64.9096 14.2618 64.6161C13.8749 64.3227 13.6815 63.8091 13.6815 63.0755C13.6815 62.3418 13.8749 61.835 14.2618 61.5548C14.6486 61.2614 15.3489 61.1147 16.3626 61.1147H18.8437V60.4344H11.9608C11.7207 60.4344 11.514 60.3477 11.3406 60.1743C11.1805 60.0009 11.1005 59.7941 11.1005 59.554C11.1005 59.3139 11.1805 59.1072 11.3406 58.9338C11.514 58.7604 11.7207 58.6737 11.9608 58.6737H18.8437V58.0534C18.8437 57.6799 18.957 57.3865 19.1838 57.173C19.4239 56.9596 19.7107 56.8529 20.0442 56.8529C20.3776 56.8529 20.6577 56.9596 20.8845 57.173C21.1246 57.3865 21.2447 57.6799 21.2447 58.0534V58.6737H28.0875C28.3276 58.6737 28.5277 58.7604 28.6877 58.9338C28.8611 59.1072 28.9478 59.3139 28.9478 59.554C28.9478 59.7941 28.8611 60.0009 28.6877 60.1743C28.5277 60.3477 28.3276 60.4344 28.0875 60.4344H21.2447V61.1147H23.6657C24.6927 61.1147 25.3997 61.2614 25.7865 61.5548C26.1734 61.835 26.3668 62.3418 26.3668 63.0755C26.3668 63.8091 26.1734 64.3227 25.7865 64.6161C25.3997 64.9096 24.6927 65.0563 23.6657 65.0563H21.2447V65.7566H23.6256C24.5727 65.7566 25.313 65.83 25.8466 65.9767C26.3935 66.1234 26.7803 66.3768 27.007 66.737C27.2471 67.0838 27.3872 67.5707 27.4272 68.1976H28.6677C28.8945 68.1976 29.0879 68.2776 29.248 68.4377C29.408 68.5978 29.4881 68.7912 29.4881 69.0179C29.4881 69.2447 29.408 69.4381 29.248 69.5982C29.0879 69.7582 28.8945 69.8383 28.6677 69.8383H27.4272C27.3872 70.4652 27.2471 70.9654 27.007 71.3389C26.7803 71.7124 26.4001 71.9792 25.8666 72.1392C25.333 72.286 24.586 72.3593 23.6256 72.3593H21.2447V72.9196C21.2447 74.0133 20.9779 74.8003 20.4443 75.2805C19.9108 75.7607 19.0437 76.0008 17.8432 76.0008ZM21.2447 70.6386H23.6256C24.1459 70.6386 24.5127 70.5919 24.7261 70.4986C24.9395 70.3918 25.0662 70.1717 25.1063 69.8383H21.2447V70.6386ZM21.2447 68.1976H25.1063C25.0529 67.8508 24.9195 67.6374 24.7061 67.5573C24.506 67.464 24.1459 67.4173 23.6256 67.4173H21.2447V68.1976ZM16.3626 63.4756H18.8437V62.6953H16.3626C16.1759 62.6953 16.0425 62.722 15.9625 62.7754C15.8958 62.8287 15.8624 62.9354 15.8624 63.0955C15.8624 63.2422 15.8958 63.3423 15.9625 63.3956C16.0425 63.449 16.1759 63.4756 16.3626 63.4756ZM21.2447 63.4756H23.6657C23.8524 63.4756 23.9791 63.449 24.0458 63.3956C24.1258 63.3423 24.1659 63.2422 24.1659 63.0955C24.1659 62.9354 24.1258 62.8287 24.0458 62.7754C23.9791 62.722 23.8524 62.6953 23.6657 62.6953H21.2447V63.4756Z" fill="white"/>
</svg>

<svg width="41" height="100" fill="none" xmlns="http://www.w3.org/2000/svg"><rect width="41" height="100" rx="20.5" fill="#1F1F1F"/><path d="M24.686 45.2c-1.16 0-2.074-.106-2.741-.32-.667-.213-1.14-.6-1.42-1.16-.267-.56-.4-1.347-.4-2.361v-4.122c0-.854.12-1.52.36-2 .24-.494.633-.841 1.18-1.041.56-.213 1.3-.32 2.22-.32h.581c.507 0 .86-.08 1.06-.24.2-.16.3-.474.3-.94v-1.461c0-.467-.1-.78-.3-.94-.2-.16-.553-.24-1.06-.24h-3.822c-.293 0-.546-.107-.76-.32a1.039 1.039 0 0 1-.32-.761c0-.307.107-.56.32-.76.213-.214.467-.32.76-.32h3.862c.934 0 1.667.106 2.2.32.548.2.935.54 1.161 1.02.24.48.36 1.147.36 2v1.461c0 .854-.12 1.528-.36 2.021-.226.48-.613.827-1.16 1.04-.534.2-1.267.3-2.201.3h-.62c-.534 0-.9.094-1.1.28-.2.174-.3.514-.3 1.021v4.002c0 .4.06.713.18.94.133.214.36.367.68.46.32.08.78.12 1.38.12.56 0 .987-.04 1.28-.12.307-.08.527-.22.66-.42.148-.213.268-.52.361-.92a.97.97 0 0 1 .56-.72c.307-.16.634-.187.98-.08.694.213.981.687.861 1.42-.2 1.147-.667 1.961-1.4 2.441-.734.48-1.848.72-3.342.72Zm-9.644.18c-.827 0-1.48-.1-1.96-.3a1.77 1.77 0 0 1-1.001-.96c-.2-.44-.3-1.034-.3-1.78 0-.761.1-1.361.3-1.801.2-.44.533-.754 1-.94.48-.188 1.134-.28 1.961-.28.827 0 1.48.092 1.96.28.481.186.821.5 1.021.94.2.44.3 1.04.3 1.8 0 .747-.1 1.34-.3 1.781-.2.454-.54.774-1.02.96-.48.2-1.134.3-1.96.3Zm-3.381-12.645a.938.938 0 0 1-.66-.26.938.938 0 0 1-.26-.66c0-.267.086-.487.26-.66a.903.903 0 0 1 .66-.28h6.622a.84.84 0 0 1 .64.28c.187.173.28.393.28.66a.903.903 0 0 1-.28.66.87.87 0 0 1-.64.26h-6.622Zm1 5.683a.904.904 0 0 1-.66-.28.97.97 0 0 1-.28-.68c0-.267.093-.494.28-.681a.904.904 0 0 1 .66-.28h4.722c.267 0 .487.093.66.28.187.187.28.413.28.68a.97.97 0 0 1-.28.68.862.862 0 0 1-.66.28h-4.722Zm0-2.841a.904.904 0 0 1-.66-.28.97.97 0 0 1-.28-.68c0-.268.093-.494.28-.681a.904.904 0 0 1 .66-.28h4.722c.267 0 .487.093.66.28.187.187.28.413.28.68a.97.97 0 0 1-.28.68.862.862 0 0 1-.66.28h-4.722Zm0-5.643a.904.904 0 0 1-.66-.28.97.97 0 0 1-.28-.68c0-.267.093-.494.28-.68a.904.904 0 0 1 .66-.28h4.722c.267 0 .487.093.66.28.187.186.28.413.28.68a.97.97 0 0 1-.28.68.862.862 0 0 1-.66.28h-4.722ZM15.042 43.5c.427 0 .72-.074.88-.22.16-.16.24-.474.24-.94 0-.454-.08-.754-.24-.901-.16-.16-.453-.24-.88-.24-.413 0-.7.08-.86.24-.16.147-.24.447-.24.9 0 .467.08.78.24.94.16.147.447.22.86.22ZM17.843 76c-.853 0-1.32-.366-1.4-1.1-.04-.346.053-.64.28-.88.227-.24.547-.373.96-.4.507-.04.827-.114.96-.22.134-.12.2-.374.2-.76v-.28h-5.902a.883.883 0 0 1-.62-.24.883.883 0 0 1-.24-.621c0-.24.08-.44.24-.6a.847.847 0 0 1 .62-.26h5.903v-.8H11.34a.836.836 0 0 1-.58-.24.79.79 0 0 1-.24-.581c0-.227.08-.42.24-.58a.835.835 0 0 1 .58-.24h7.503v-.78H13a.957.957 0 0 1-.64-.22.783.783 0 0 1-.26-.601c0-.253.087-.454.26-.6a.909.909 0 0 1 .64-.24h5.843v-.7h-2.481c-1.014 0-1.714-.147-2.101-.44-.387-.294-.58-.808-.58-1.542 0-.733.193-1.24.58-1.52.387-.294 1.087-.44 2.1-.44h2.482v-.68H11.96a.847.847 0 0 1-.62-.26.883.883 0 0 1-.24-.621c0-.24.08-.447.24-.62a.847.847 0 0 1 .62-.26h6.883v-.62c0-.374.113-.668.34-.881.24-.213.527-.32.86-.32.334 0 .614.107.84.32.24.213.36.507.36.88v.62h6.843c.24 0 .44.087.6.26.174.174.26.38.26.621 0 .24-.086.447-.26.62a.783.783 0 0 1-.6.26h-6.842v.68h2.42c1.028 0 1.735.147 2.122.44.386.281.58.788.58 1.521 0 .734-.194 1.248-.58 1.541-.387.294-1.094.44-2.121.44h-2.421v.7h2.38c.948 0 1.688.074 2.222.22.546.147.933.4 1.16.761.24.347.38.834.42 1.46h1.24c.227 0 .42.08.581.24.16.16.24.354.24.58a.79.79 0 0 1-.24.581.79.79 0 0 1-.58.24h-1.24c-.04.627-.18 1.127-.421 1.5-.227.374-.607.641-1.14.801-.534.147-1.281.22-2.241.22h-2.381v.56c0 1.094-.267 1.881-.8 2.362-.534.48-1.401.72-2.602.72Zm3.402-5.361h2.38c.52 0 .888-.047 1.101-.14.213-.107.34-.327.38-.66h-3.861v.8Zm0-2.441h3.861c-.053-.347-.187-.56-.4-.64-.2-.094-.56-.14-1.08-.14h-2.381v.78Zm-4.882-4.722h2.48v-.78h-2.48c-.187 0-.32.026-.4.08-.067.053-.1.16-.1.32 0 .146.033.246.1.3.08.053.213.08.4.08Zm4.882 0h2.42c.187 0 .314-.027.38-.08.08-.054.12-.154.12-.3 0-.16-.04-.267-.12-.32-.066-.054-.193-.08-.38-.08h-2.42v.78Z" fill="#fff"/></svg>
